lib/brands/icons/ms-onedrive.svg

<svg xmlns="http://www.w3.org/2000/svg" fill="none" aria-hidden="true" viewBox="0 0 48 48"><g id="ms-onedrive-Icon"><g id="onedrive"><mask id="mask0_94_16645" width="40" height="25" x="4" y="11" maskUnits="userSpaceOnUse" style="mask-type:alpha"><path id="Union" fill="#C4C4C4" d="M13.7872 36C8.38186 36 4 31.7094 4 26.4167C4 21.2402 8.19153 17.0223 13.4327 16.8395C15.5942 13.3396 19.518 11 24 11C29.7885 11 34.6461 14.9023 35.9786 20.1669C40.4146 20.2003 44 23.7319 44 28.0833C44 32.3158 40.25 36 36.3404 35.9892L13.7872 36Z"/></mask><g mask="url(#mask0_94_16645)"><path id="vector" fill="url(#paint0_linear_94_16645)" d="M13.7872 35.9999C10.7223 35.9999 7.98647 34.6205 6.19189 32.4611L26.5532 23.9167L42.3856 32.8306C40.9902 34.6512 38.8828 35.9999 36.5 35.9892C32.9063 35.9999 19.0781 35.9999 13.7872 35.9999Z"/><path id="vector_2" fill="url(#paint1_linear_94_16645)" d="M35.9727 20.1435L26.5532 23.9166L42.3857 32.8306C43.3994 31.508 44 29.8643 44 28.0834C44 23.732 40.4146 20.2004 35.9786 20.1669C35.9766 20.1591 35.9747 20.1513 35.9727 20.1435Z"/><path id="vector_3" fill="url(#paint2_linear_94_16645)" d="M12.8306 16.8785L26.5529 23.9167L35.9723 20.1435C34.6314 14.8908 29.7796 11 23.9997 11C19.5177 11 15.5939 13.3396 13.4323 16.8395C13.2301 16.8466 13.0295 16.8597 12.8306 16.8785Z"/><path id="vector_4" fill="url(#paint3_linear_94_16645)" d="M6.19188 32.4611L26.5532 23.9166L12.8309 16.8785C7.87433 17.3492 4 21.4399 4 26.4166C4 28.7083 4.8215 30.8121 6.19188 32.4611Z"/></g></g></g><defs><linearGradient id="paint0_linear_94_16645" x1="9.53189" x2="38.0382" y1="34.3333" y2="32.5952" gradientUnits="userSpaceOnUse"><stop stop-color="#2086B8"/><stop offset="1" stop-color="#46D3F6"/></linearGradient><linearGradient id="paint1_linear_94_16645" x1="33.7873" x2="41.763" y1="28.0832" y2="22.5101" gradientUnits="userSpaceOnUse"><stop stop-color="#1694DB"/><stop offset="1" stop-color="#62C3FE"/></linearGradient><linearGradient id="paint2_linear_94_16645" x1="14.638" x2="33.1669" y1="12.6667" y2="23.4185" gradientUnits="userSpaceOnUse"><stop stop-color="#0D3D78"/><stop offset="1" stop-color="#063B83"/></linearGradient><linearGradient id="paint3_linear_94_16645" x1="3.57446" x2="22.2043" y1="28.5" y2="21.5814" gradientUnits="userSpaceOnUse"><stop stop-color="#16589B"/><stop offset="1" stop-color="#1464B7"/></linearGradient></defs></svg>

<svg xmlns="http://www.w3.org/2000/svg" fill="none" aria-hidden="true" viewBox="0 0 48 48"><mask id="a" width="40" height="25" x="4" y="11" maskUnits="userSpaceOnUse" style="mask-type:alpha"><path fill="#C4C4C4" d="M13.787 36C8.382 36 4 31.71 4 26.417c0-5.177 4.192-9.395 9.433-9.578C15.594 13.34 19.518 11 24 11c5.788 0 10.646 3.902 11.979 9.167C40.415 20.2 44 23.732 44 28.083c0 4.233-3.75 7.917-7.66 7.906L13.787 36Z"/></mask><g mask="url(#a)"><path fill="url(#b)" d="M13.787 36a9.85 9.85 0 0 1-7.595-3.539l20.361-8.544 15.833 8.914C40.99 34.65 38.883 36 36.5 35.989 32.906 36 19.078 36 13.787 36Z"/><path fill="url(#c)" d="m35.973 20.143-9.42 3.774 15.833 8.914A7.774 7.774 0 0 0 44 28.083c0-4.351-3.585-7.883-8.021-7.916a2.002 2.002 0 0 0-.006-.024Z"/><path fill="url(#d)" d="m12.83 16.878 13.723 7.039 9.42-3.774C34.632 14.892 29.78 11 24 11c-4.482 0-8.406 2.34-10.567 5.84-.203.007-.403.02-.602.038Z"/><path fill="url(#e)" d="m6.192 32.461 20.361-8.544-13.722-7.039C7.874 17.35 4 21.44 4 26.417c0 2.291.822 4.395 2.192 6.044Z"/></g><defs><linearGradient id="b" x1="9.532" x2="38.038" y1="34.333" y2="32.595" gradientUnits="userSpaceOnUse"><stop stop-color="#2086B8"/><stop offset="1" stop-color="#46D3F6"/></linearGradient><linearGradient id="c" x1="33.787" x2="41.763" y1="28.083" y2="22.51" gradientUnits="userSpaceOnUse"><stop stop-color="#1694DB"/><stop offset="1" stop-color="#62C3FE"/></linearGradient><linearGradient id="d" x1="14.638" x2="33.167" y1="12.667" y2="23.419" gradientUnits="userSpaceOnUse"><stop stop-color="#0D3D78"/><stop offset="1" stop-color="#063B83"/></linearGradient><linearGradient id="e" x1="3.574" x2="22.204" y1="28.5" y2="21.581" gradientUnits="userSpaceOnUse"><stop stop-color="#16589B"/><stop offset="1" stop-color="#1464B7"/></linearGradient></defs></svg>
